img/service-size-icon__06.svg

<svg width="25" height="25" viewBox="0 0 25 25" fill="none" xmlns="http://www.w3.org/2000/svg">
<path d="M24.5718 5.26204L19.738 0.428438C19.1669 -0.142813 18.2377 -0.142813 17.6664 0.428438L17.1781 0.916719C16.9876 1.10726 16.9876 1.41644 17.1781 1.60718C17.3689 1.79772 17.6781 1.79772 17.8688 1.60718L18.3571 1.1189C18.5474 0.928545 18.8572 0.928545 19.0475 1.1189L23.8811 5.9525C23.9727 6.04405 24.023 6.1667 24.023 6.29773C24.023 6.42896 23.9727 6.5516 23.8811 6.64296L14.9044 15.6197C14.8128 15.7113 14.6904 15.7616 14.5592 15.7616C14.4279 15.7616 14.3053 15.7113 14.2139 15.6197L9.38013 10.7861C9.28877 10.6946 9.23842 10.5721 9.23842 10.4409C9.23842 10.3096 9.28877 10.187 9.38013 10.0956L15.1066 4.36921C15.2973 4.17867 15.2973 3.86949 15.1066 3.67875C14.916 3.48802 14.6068 3.48802 14.4161 3.67875L8.68967 9.40518C8.41387 9.68099 8.26186 10.0489 8.26186 10.4409C8.26186 10.8328 8.41387 11.2008 8.68967 11.4766L10.0645 12.8514L9.5064 13.4095C9.31261 13.6033 9.01259 13.6588 8.75967 13.5474C8.58191 13.4692 8.37496 13.5035 8.2321 13.6351L0.795158 20.4846C0.296958 20.9435 0.0148613 21.5794 0.000556174 22.2752C-0.0143212 23 0.269874 23.7088 0.780662 24.2194C1.27848 24.7174 1.96474 25 2.67065 25C2.68877 25 2.70689 24.9999 2.72482 24.9995C3.42081 24.9852 4.05672 24.7031 4.51544 24.2049C4.69816 24.0067 4.68539 23.6977 4.48702 23.515C4.28866 23.3323 3.97967 23.345 3.79713 23.5434C3.52019 23.844 3.13223 24.0143 2.7048 24.0231C2.24493 24.0332 1.7948 23.8524 1.47112 23.5289C1.14764 23.2052 0.967391 22.7557 0.976928 22.2952C0.985702 21.8678 1.15603 21.4798 1.45663 21.2029L8.68662 14.5442C9.22507 14.6576 9.8007 14.4963 10.1969 14.1001L10.755 13.542L11.4582 14.2451L10.9001 14.8032C10.5039 15.1995 10.3424 15.7752 10.4561 16.3136L6.44339 20.6702C6.26066 20.8685 6.27344 21.1775 6.47181 21.3603C6.56565 21.4467 6.68429 21.4894 6.80254 21.4894C6.93415 21.4894 7.06557 21.4364 7.1617 21.3318L11.3651 16.7681C11.4965 16.6253 11.5311 16.4181 11.4528 16.2406C11.3415 15.9876 11.397 15.6876 11.5908 15.4938L12.1487 14.9357L13.5235 16.3106C13.7993 16.5864 14.1672 16.7384 14.5592 16.7384C14.9511 16.7384 15.319 16.5864 15.595 16.3104L24.5718 7.33361C24.8476 7.05781 24.9996 6.68988 24.9996 6.29792C24.9996 5.90596 24.8476 5.53784 24.5718 5.26204Z" fill="black"/>
<path d="M5.13491 22.0933C4.94418 22.2839 4.94418 22.5931 5.13491 22.7838C5.23028 22.8792 5.35521 22.9269 5.48014 22.9269C5.60507 22.9269 5.73 22.8792 5.82537 22.7838C6.01591 22.5931 6.0163 22.2839 5.82556 22.0932C5.63483 21.9024 5.32564 21.9026 5.13491 22.0933Z" fill="black"/>
<path d="M13.4179 11.707C13.4179 11.9767 13.6365 12.1954 13.9062 12.1954C14.1759 12.1954 14.3945 11.9767 14.3945 11.707C14.3945 11.4375 14.1759 11.2187 13.9062 11.2187C13.6365 11.2187 13.4179 11.4375 13.4179 11.707Z" fill="black"/>
<path d="M19.2301 9.55859C19.2301 9.28889 19.0114 9.07031 18.7419 9.07031C18.4722 9.07031 18.2536 9.28889 18.2536 9.55859C18.2536 9.82829 18.4722 10.0471 18.7419 10.0471C19.0114 10.0471 19.2301 9.82829 19.2301 9.55859Z" fill="black"/>
<path d="M14.6875 7.8497C14.6875 8.1194 14.9061 8.33817 15.1758 8.33817C15.4454 8.33817 15.664 8.1194 15.664 7.8497C15.664 7.58 15.4454 7.36142 15.1758 7.36142C14.9061 7.36142 14.6875 7.58 14.6875 7.8497Z" fill="black"/>
<path d="M20.449 5.50595C20.449 5.23625 20.2304 5.01767 19.9607 5.01767C19.6912 5.01767 19.4726 5.23625 19.4726 5.50595C19.4726 5.77565 19.6912 5.99442 19.9607 5.99442C20.2304 5.99442 20.449 5.77565 20.449 5.50595Z" fill="black"/>
<path d="M16.1443 3.13188C16.2615 3.13188 16.3791 3.08991 16.4726 3.00485C16.6721 2.82346 16.687 2.51466 16.5056 2.31496C16.3242 2.11545 16.0152 2.10096 15.8157 2.28235C15.6162 2.46373 15.6015 2.77253 15.7829 2.97204C15.8792 3.07809 16.0116 3.13188 16.1443 3.13188Z" fill="black"/>
</svg>

<svg width="25" height="25" fill="none" xmlns="http://www.w3.org/2000/svg"><path d="M24.572 5.262L19.738.428a1.466 1.466 0 00-2.072 0l-.488.489a.489.489 0 00.69.69l.49-.488c.19-.19.5-.19.69 0l4.833 4.833a.484.484 0 01.142.346c0 .131-.05.254-.142.345l-8.977 8.977a.484.484 0 01-.345.142.484.484 0 01-.345-.142L9.38 10.786a.485.485 0 01-.142-.345c0-.131.05-.254.142-.345l5.727-5.727a.488.488 0 10-.69-.69L8.69 9.405a1.455 1.455 0 00-.428 1.036c0 .392.152.76.428 1.036l1.375 1.374-.559.558a.677.677 0 01-.746.138.488.488 0 00-.528.088l-7.437 6.85a2.477 2.477 0 00-.794 1.79A2.686 2.686 0 00.78 24.22a2.684 2.684 0 001.944.78 2.476 2.476 0 001.79-.794.488.488 0 10-.718-.662 1.509 1.509 0 01-1.092.48 1.7 1.7 0 01-1.234-.494 1.703 1.703 0 01-.494-1.234c.009-.427.179-.815.48-1.092l7.23-6.659a1.66 1.66 0 001.51-.444l.558-.558.703.703-.558.558a1.66 1.66 0 00-.444 1.51L6.443 20.67a.488.488 0 00.719.662l4.203-4.564a.488.488 0 00.088-.527.677.677 0 01.138-.747l.558-.558 1.375 1.375c.275.275.643.427 1.035.427.392 0 .76-.152 1.036-.428l8.977-8.976c.276-.276.428-.644.428-1.036s-.152-.76-.428-1.036z" fill="#000"/><path d="M5.135 22.093a.488.488 0 10.69.69.488.488 0 00-.69-.69zm8.283-10.386a.488.488 0 10.977 0 .488.488 0 00-.977 0zm5.812-2.148a.488.488 0 10-.977 0 .488.488 0 00.977 0zM14.688 7.85a.488.488 0 10.976 0 .488.488 0 00-.976 0zm5.761-2.344a.488.488 0 10-.977 0 .488.488 0 00.977 0zm-4.305-2.374a.488.488 0 100-.977.488.488 0 000 .977z" fill="#000"/></svg>
